X:8
T:Jack's Maggot. WR1776.08
B:Wm.Randall CDs 1776
Z:vmp.Steve Mansfield 2015
M:C
L:1/8
W:Foot it all 4 & change places same back again
W:cross over 2 Cu. lead up to the top cast off hands 6 round
W:& back again lead out sides & turn
Q:2/4=60
K:C
c/c/c ge c/c/c af | edcB c2C2 | c/c/c ge c/c/c af | eg^fa g2G2 :|
G/G/G cG A/A/A fd | cd/e/ fe d2G2 | c/c/c ge d/d/d af | edcB c2C2 :|

